**kern
*clefG2
=
1c
=
1d
=
1e
=
1f
=
1g
=
1a
=
1b
=
1cc
=
1dd
=
1ee
=
1ff
=
1gg
=
*clefG2
=
1c
=
1d
=
1e
=
1f
=
1g
=
1a
=
1b
=
1cc
=
1dd
=
1ee
=
1ff
=
1gg
=
*-
